X:1
T:A Shropshire Lad
T:A Shropshire Lad
T:1. Loveliest of Trees, the Cherry now
T:Arthur Somervell
T:A. E. Housman
T:Creative Commons copyright waiver (CC0 1.0 Universal)
T:Creative Commons copyright waiver (CC0 1.0 Universal)
T:Creative Commons copyright waiver (CC0 1.0 Universal)
C:Arthur Somervell
Z:A. E. Housman
Z:Creative Commons copyright waiver (CC0 1.0 Universal)
%%score 1 { ( 2 4 ) | ( 3 5 ) }
L:1/8
Q:1/4=100
M:4/4
K:E
V:1 treble nm="Voice"
V:2 treble nm="Piano"
V:4 treble 
V:3 bass 
V:5 bass 
V:1
"^Andante con moto" z | z8 |!p! B2 c3/2 B/ E3 E | G3 F B,4- | B,!<(! C D E (F!<)! B2) G | %5
w: ||Love- liest of trees, the|cher- ry now|_ is hung with bloom * a-|
 E3 F F2 z!<(! B | (c2 d3/2) c/!<)! F3 F |!>(! A2 G2 C4!>)! | (DF) (EG) B3 G | G3 F E4 | z8 | %11
w: long the bough, And|stands * a- bout the|wood- land ride|Wear- * ing _ white for|Eas- ter- tide.||
[M:2/4] z4 |[M:4/4] B2 c3/2 B/ E3 E | G3 F B,4 | (B,C) (DE) (F B2) G | E3 F F3 F | %16
w: |Now, of my three- score|years and ten,|Twen- * ty _ will _ not|come a- gain, And|
!<(! (c2 d3/2) c/ F3!<)! F | A3!>(! G C3!>)! C |!<(! (DF) (EG) B3!<)! G |!>(! G3 F!>)! E4 | z8 | %21
w: take _ from seven- ty|springs a score, It|on- * ly _ leaves me|fif- ty more.||
[M:2/4] z2 z!p! F |[M:4/4] (B2 c3/2) B/ E3 E | G3 F B,4 | (B,C) (DE) (F B2) G | E3 F F2 z!<(! F | %26
w: And|since _ to look at|things in bloom|Fif- * ty _ springs * are|lit- tle room, A-|
 (c2 d3/2) c/!<)! F3 F |!>(! A2 G2!>)! C3 C |!<(! (DF) (EG) B3!<)! G | G6!>(! F2!>)! | E8 | z4 z4 | %32
w: bout _ the wood- lands|I will go To|see _ the _ cher- ry|hung with|snow.||
 z8 | z8 |] %34
w: ||
V:2
!p! B, | (CED!<(!F EGFA)!<)! |!p! [B,EG]4 [B,E]4 | G3 F [B,E]4- | [G,B,E]2!<(! (DC [B,F]3)!<)! z | %5
 ([B,EG]2 [DF][CE] [B,D]3) z |!<(! (c2 d>c)!<)! [EF]4 | ([A,DA]2!>(! [^B,EG]2) (^EG)!>)!(FA) | %8
 (D2 E2) ([DF]A) ([EG]B) | (ce) (df)!<(! b3 g | (g!<)!!>(!agf)!>)! B3 G |[M:2/4] (GAGF) | %12
[M:4/4] [G,B,E]4 [B,EG]4 | G3 F [B,E]4- | [G,B,E]2 (DC [B,F]3) z | ([B,EG]2 [DF][CE] [B,D]3) z | %16
!<(! (c2 d>c)!<)! [EF]4 | ([A,DA]3 [^B,EG]) (^EG) (FA) | (D2 E2)!<(! ([DF]A) ([EG]B)!<)! | %19
 (ce) (df)!<(! (b3 g) | (g!<)!!>(!agf)!>)! (B3 G) |[M:2/4] (GAGF) |[M:4/4]!p! [B,G]4 [B,EG]4 | %23
 (G3 F) [B,E]4- | [G,B,E]2 (DC [B,F]3) z | ([B,EG]2 [DF][CE] [B,D]3)!<(! z | (c2 d>c)!<)! [EF]4 | %27
!>(! [A,DA]2 [^B,EG]2!>)! (^EG) (FA) | (D2 E2)!<(! ([DF]A) ([EG]B) | (c!<)!ege!<(! ce) (df) | %30
 (b3!<)! g) (gagf) |!>(! (AGFE DFEB,) | G,2!>)! z2 [G,EG]2 z2 |!pp! [G,EG]8 |] %34
V:3
 z | z2 [A,,F,]2 [G,,E,]2 [F,,B,,]2 | z (E,,B,,E,) z (C,,G,,E,) | z (D,,B,,F,) z (E,,B,,F, | %4
 E,)(E,,F,,E,) z (D,,B,,F,) | z (C,, F,,2) z (B,,,F,,B,,) | (^A,,F,CF,) F,4 | z (F,,G,,G,) A,,4 | %8
 [A,,F,]2 [G,,E,]2 B,,4 | [B,,,B,,]4 (E,,B,,E,G, | [A,C]2 [B,D]2) (E,,B,,E,G,) |[M:2/4] z4 | %12
[M:4/4] z (E,,B,,E,) z (C,,G,,E,) | z (D,,B,,F,) z (E,,B,,F, | E,)(E,,F,,E,) z (D,,B,,F,) | %15
 z (C,, F,,2) z (B,,,F,,B,,) | (^A,,F,CF,) F,4 | z (F,,G,,G,) A,,4 | ([A,,F,]2 [G,,E,]2) B,,4- | %19
 B,,4 (E,,B,,E,G,) | ([A,C]2 [B,D]2) (E,,B,,E,G,) |[M:2/4] z4 |[M:4/4] z (E,,B,,E,) z (C,,G,,E,) | %23
 z (D,,B,,F,) z (E,,B,,F, | E,) (E,,F,,E,) z (D,,B,,F,) | z (C,, F,,2) z (B,,,F,,B,,) | %26
 (^A,,F,CF,) F,4 | z (F,,G,,G,) A,,4- | [A,,F,]2 [G,,E,]2 B,,4 | [B,,,B,,]6 B,2 | %30
 (E,,B,,E,G, [A,C]2 [B,D]2) | [E,,B,,]8- | [E,,B,,]2 z2 [E,,B,,]2 z2 | [E,,B,,]8 |] %34
V:4
 x | A,2 B,4 D2 | x8 | [A,B,]4 (A,G,F,A,) | x2 ([F,^A,]2 F,3) x | x2 ^A,2 x4 | [EF]4 (^A,B,C=C) | %7
 x4 [G,C]2 [A,C]2 | B,4 B,4 | [GB]2 [AB]2 [Beg]4 | [A-c]2 [Ad]2 [B,EG]4 |[M:2/4] [A,C]2 [B,D]2 | %12
[M:4/4] x8 | [A,B,]4 A,G,F,A, | x2 ([F,^A,]2 F,3) x | x2 ^A,2 x4 | [EF]4 (^A,B,C=C) | %17
 x4 [G,C]2 [A,C]2 | B,4 B,4 | [GB]2 [AB]2 [Beg]4 | [A-c]2 [Ad]2 [B,EG]4 |[M:2/4] [A,C]2 [B,D]2 | %22
[M:4/4] x8 | [A,B,]4 A,G,F,A, | x2 ([F,^A,]2 F,3) x | x2 ^A,2 x4 | [EF]4 (^A,B,C=C) | %27
 x4 [G,C]2 [A,C]2 | B,4 B,4 | [GB]6 [AB]2 | [Beg]4 [A-c]2 [Ad]2 | [B,B]8 | x8 | x8 |] %34
V:5
 x | x8 | x8 | x8 | x8 | x8 | x4 (C,B,,^A,,=A,,) | x8 | x4 F,,2 E,,2 | x8 | x8 |[M:2/4] x4 | %12
[M:4/4] x8 | x8 | x8 | x8 | x4 (C,B,,^A,,=A,,) | x8 | x4 (F,,2 E,,2 | B,,,4) x4 | x8 |[M:2/4] x4 | %22
[M:4/4] x8 | x8 | x8 | x8 | x4 (C,B,,^A,,=A,,) | x8 | x4 (F,,2 E,,2) | x8 | x8 | x8 | x8 | x8 |] %34

